src/assets/icons/app/share-ios.svg

<?xml version="1.0" encoding="UTF-8"?>
<svg width="24px" height="24px" viewBox="0 0 24 24" version="1.1" xmlns="http://www.w3.org/2000/svg" xmlns:xlink="http://www.w3.org/1999/xlink">
    <title>app-share-ios</title>
    <g id="app-share-ios" stroke="none" stroke-width="1" fill="none" fill-rule="evenodd">
        <path d="M16.6645714,4.48898059 C16.9577143,4.78453454 16.9577143,5.26761237 16.6645714,5.56418547 C16.5226286,5.70788584 16.3344,5.78636051 16.1348571,5.78636051 C15.9342857,5.78534136 15.7481143,5.70788584 15.6061714,5.56418547 L12.7323429,2.67285253 L12.7323429,15.0865006 C12.7323429,15.506391 12.396,15.8467876 11.9825143,15.8467876 C11.5690286,15.8467876 11.2326857,15.506391 11.2326857,15.0865006 L11.2326857,2.70954198 L8.39382857,5.56418547 C8.10994286,5.85158621 7.61725714,5.85056706 7.33542857,5.56520462 C7.04125714,5.26761237 7.04125714,4.78453454 7.33542857,4.48898059 L11.6101714,0.186122748 C11.8570286,-0.0625502301 12.1450286,-0.0615310786 12.3898286,0.186122748 L16.6645714,4.48898059 Z M21,22.2164848 C21,23.2009852 20.1936,24 19.2,24 L4.8,24 C3.80537143,24 3,23.2009852 3,22.2164848 L3,8.9483631 C3,7.96284356 3.80537143,7.16484789 4.8,7.16484789 L8.64685714,7.16484789 L8.64685714,8.69357522 L5.48502857,8.69357522 C4.96457143,8.69357522 4.54285714,9.11142735 4.54285714,9.62711804 L4.54285714,21.5377299 C4.54285714,22.0524014 4.96457143,22.4712727 5.48502857,22.4712727 L18.5149714,22.4712727 C19.0354286,22.4712727 19.4571429,22.0524014 19.4571429,21.5377299 L19.4571429,9.62711804 C19.4571429,9.11142735 19.0354286,8.69357522 18.5149714,8.69357522 L15.3428571,8.69357522 L15.3428571,7.16484789 L19.2,7.16484789 C20.1936,7.16484789 21,7.96284356 21,8.9483631 L21,22.2164848 Z" id="Icon" fill="#523178"></path>
    </g>
</svg>

<svg xmlns="http://www.w3.org/2000/svg" viewBox="0 0 24 24"><defs/><path fill="currentColor" fill-rule="evenodd" d="M16.66 4.49c.3.3.3.78 0 1.07a.74.74 0 01-1.05 0l-2.88-2.89V15.1c0 .42-.33.76-.75.76a.76.76 0 01-.75-.76V2.7L8.4 5.56a.76.76 0 01-1.05 0 .77.77 0 010-1.07L11.6.19c.25-.25.54-.25.78 0l4.27 4.3zM21 22.22c0 .98-.8 1.78-1.8 1.78H4.8c-1 0-1.8-.8-1.8-1.78V8.95c0-.99.8-1.79 1.8-1.79h3.85V8.7H5.49a.94.94 0 00-.95.94v11.9c0 .52.42.94.95.94H18.5c.53 0 .95-.42.95-.93V9.63a.94.94 0 00-.95-.94h-3.17V7.16h3.86c1 0 1.8.8 1.8 1.79v13.27z"/></svg>
